basket-off.svg

<svg fill="currentColor" viewBox="0 0 24 24"><path d="m23 10-.04.29-2.06 7.41L12.2 9H15l-3-4.26-1.68 2.38-1.43-1.43 2.29-3.26a.997.997 0 0 1 1.65.01L17.42 9H22c.55 0 1 .45 1 1m-.89 11.46-1.27 1.27-1.81-1.81c-.17.05-.35.08-.53.08h-13c-.78 0-1.46-.45-1.79-1.1L1.1 10.44 1 10c0-.55.45-1 1-1h4.58l.22-.31L1.11 3l1.28-1.27zm-8.26-5.72-2.59-2.59C10.5 13.44 10 14.16 10 15a2 2 0 0 0 2 2c.84 0 1.56-.5 1.85-1.26"/></svg>

<svg  viewBox="0 0 24 24" fill="currentColor"><path  d="M23 10L22.96 10.29L20.9 17.7L12.2 9H15L12 4.74L10.32 7.12L8.89 5.69L11.18 2.43C11.36 2.17 11.66 2 12 2S12.65 2.17 12.83 2.44L17.42 9H22C22.55 9 23 9.45 23 10M22.11 21.46L20.84 22.73L19.03 20.92C18.86 20.97 18.68 21 18.5 21H5.5C4.72 21 4.04 20.55 3.71 19.9L1.1 10.44L1 10C1 9.45 1.45 9 2 9H6.58L6.8 8.69L1.11 3L2.39 1.73L22.11 21.46M13.85 15.74L11.26 13.15C10.5 13.44 10 14.16 10 15C10 16.11 10.9 17 12 17C12.84 17 13.56 16.5 13.85 15.74Z"/></svg>
